Yaru++/actions/16/paint-none.svg

<svg height="16" viewBox="0 0 16 16" width="16" xmlns="http://www.w3.org/2000/svg">
  <path d="m8 .0000002a8 7.9999602 0 0 0 -8 7.9999998 8 7.9999602 0 0 0 8 8 8 7.9999602 0 0 0 8-8 8 7.9999602 0 0 0 -8-7.9999998m0 1.3333332a6.6666668 6.6666334 0 0 1 6.666667 6.6666666 6.6666668 6.6666334 0 0 1 -6.666667 6.666667 6.6666668 6.6666334 0 0 1 -6.6666666-6.666667 6.6666668 6.6666334 0 0 1 6.6666666-6.6666666m-3.2682292 2.4557295a5.3333334 5.3333334 0 0 0 -.940104.9453121l3.2656676 3.265625-3.268001 3.268a5.3333334 5.3333334 0 0 0 .9450414.940333l3.2656252-3.265666 3.268 3.268a5.3333334 5.3333334 0 0 0 .940333-.945042l-3.265666-3.265625 3.268-3.268a5.3333334 5.3333334 0 0 0 -.945042-.9403331l-3.265625 3.2656661z" fill="#da4453"/>
</svg>

<svg xmlns="http://www.w3.org/2000/svg" width="16" height="16" version="1.1" viewBox="0 0 16 16">
 <defs>
  <style id="current-color-scheme" type="text/css">
   .ColorScheme-Text { color:#808080; } .ColorScheme-NegativeText { color:#da4453; }
  </style>
 </defs>
 <path style="fill:currentColor" class="ColorScheme-NegativeText" d="M 8,2e-7 A 8,7.9999602 0 0 0 0,8 8,7.9999602 0 0 0 8,16 8,7.9999602 0 0 0 16,8 8,7.9999602 0 0 0 8,2e-7 M 8,1.3333334 A 6.6666668,6.6666334 0 0 1 14.666667,8 6.6666668,6.6666334 0 0 1 8,14.666667 6.6666668,6.6666334 0 0 1 1.3333334,8 6.6666668,6.6666334 0 0 1 8,1.3333334 M 4.7317708,3.7890629 A 5.3333334,5.3333334 0 0 0 3.7916668,4.734375 L 7.0573344,8 3.7893334,11.268 a 5.3333334,5.3333334 0 0 0 0.9450414,0.940333 L 8,8.942667 l 3.268,3.268 a 5.3333334,5.3333334 0 0 0 0.940333,-0.945042 L 8.942667,8 l 3.268,-3.268 A 5.3333334,5.3333334 0 0 0 11.265625,3.7916669 L 8,7.057333 Z"/>
</svg>
